app/assets/img/sf-service.svg

<svg fill="none" height="18" viewBox="0 0 144 18" width="144" xmlns="http://www.w3.org/2000/svg"><g fill="#0025e4"><path clip-rule="evenodd" d="m8.91279 0c2.38171 0 4.62051.935852 6.30451 2.63564 1.6843 1.70004 2.6117 3.96044 2.6117 6.36422 0 2.40404-.9274 4.66414-2.6117 6.36394-1.6842 1.7001-3.9236 2.6362-6.30529 2.6362s-4.62054-.9359-6.30478-2.6359c-3.476524-3.5092-3.476264-9.21903.00052-12.72793 1.68425-1.700059 3.92336-2.63617 6.30504-2.63617zm4.39661 5.68216c1.454 1.96121 1.454 4.67444 0 6.63574l1.3232 1.3353c1.0535-1.3142 1.627-2.9393 1.627-4.65332 0-1.71431-.5735-3.33911-1.6267-4.65363zm-7.17306 6.12024c-1.53095-1.5453-1.53095-4.05948 0-5.6048.74166-.74835 1.72767-1.16083 2.77619-1.16083 1.04853 0 2.03457.41248 2.77617 1.16083 1.531 1.54532 1.531 4.0595 0 5.6048-.7416.7484-1.72764 1.1608-2.77617 1.1608-1.04852 0-2.03453-.4124-2.77619-1.1608zm6.06356-7.24066 1.323-1.33539c-1.3018-1.06339-2.9117-1.64195-4.61009-1.64195-1.69811 0-3.30805.57882-4.61034 1.64222l1.3227 1.33512c.94466-.71588 2.08501-1.10881 3.28738-1.10881 1.20235 0 2.34275.39293 3.28735 1.10881zm-9.00719-.21497 1.32322 1.33565c-1.45402 1.96121-1.45402 4.67448 0 6.63568l-1.32348 1.3359c-2.16377-2.7061-2.16377-6.60136.00026-9.30723zm2.43244 9.09173-1.32296 1.3354c1.30229 1.0634 2.91172 1.642 4.60981 1.642 1.6984 0 3.3083-.5789 4.6106-1.6422l-1.3227-1.3352c-.9447.7159-2.085 1.1088-3.28737 1.1088-1.20236 0-2.3427-.3929-3.28738-1.1088z" fill-rule="evenodd"/><path d="m28.6523 5.46814c-.0701.11207-.1448.19612-.2242.25215-.0747.05604-.1727.08406-.2942.08406-.1073 0-.2241-.03269-.3502-.09806-.1214-.07005-.2615-.14709-.4202-.23114-.1541-.08405-.3315-.15876-.5323-.22414-.2008-.07004-.4296-.10506-.6864-.10506-.4436 0-.7752.09573-.9946.28717-.2148.18678-.3222.44127-.3222.76346 0 .20546.0653.37589.1961.51131.1307.13541.3012.25215.5113.3502.2148.09806.4576.18912.7284.27317.2755.07938.5557.17043.8405.27316.2849.09806.5627.2148.8335.35021.2755.13542.5183.30819.7285.51831.2148.21013.3875.46695.5183.77046.1307.29885.1961.66073.1961 1.0857 0 .4716-.0817.9128-.2452 1.3237-.1634.411-.4015.7705-.7144 1.0787-.3082.3035-.6911.544-1.1487.7214-.4529.1728-.9689.2592-1.5479.2592-.3175 0-.642-.0327-.9736-.0981-.3268-.0654-.6444-.1564-.9525-.2731-.3082-.1215-.5977-.2639-.8686-.4273-.2708-.1634-.5066-.3455-.7074-.5463l.7004-1.1067c.0561-.0794.1284-.1447.2172-.1961.0934-.056.1937-.0841.3011-.0841.1401 0 .2802.0444.4203.1331.1447.0887.3058.1868.4833.2942.1821.1074.3899.2055.6234.2942.2334.0887.5089.1331.8264.1331.4296 0 .7635-.0934 1.0016-.2802.2382-.1915.3573-.4926.3573-.9036 0-.2381-.0654-.4319-.1962-.5813-.1307-.14943-.3035-.27317-.5183-.37123-.2101-.09805-.4506-.18444-.7214-.25915s-.5487-.15643-.8335-.24515c-.2848-.09339-.5627-.20545-.8335-.3362-.2708-.13541-.5136-.31052-.7284-.52531-.2102-.21947-.3806-.4903-.5113-.81249-.1308-.32686-.1962-.72843-.1962-1.20472 0-.3829.0771-.75645.2312-1.12067s.3805-.68875.6794-.97358c.2988-.28484.6654-.51131 1.0996-.67941.4343-.17277.9316-.25915 1.4919-.25915.3129 0 .6164.02568.9106.07704.2988.0467.5813.11907.8475.21713.2662.09339.5136.20779.7424.34321.2335.13074.4413.28017.6234.44827z"/><path d="m33.1519 5.21599v2.58455h3.4881v1.82809h-3.4881v3.97137h-2.3814v-10.2051h6.5699v1.82109z"/><path d="m47.2298 5.46814c-.0701.11207-.1448.19612-.2242.25215-.0747.05604-.1727.08406-.2941.08406-.1074 0-.2242-.03269-.3502-.09806-.1214-.07005-.2615-.14709-.4203-.23114-.1541-.08405-.3315-.15876-.5323-.22414-.2008-.07004-.4296-.10506-.6864-.10506-.4436 0-.7752.09573-.9946.28717-.2148.18678-.3222.44127-.3222.76346 0 .20546.0654.37589.1961.51131.1308.13541.3012.25215.5113.3502.2148.09806.4576.18912.7285.27317.2754.07938.5556.17043.8405.27316.2848.09806.5626.2148.8335.35021.2754.13542.5183.30819.7284.51831.2148.21013.3876.46695.5183.77046.1307.29885.1961.66073.1961 1.0857 0 .4716-.0817.9128-.2451 1.3237-.1635.411-.4016.7705-.7145 1.0787-.3081.3035-.691.544-1.1486.7214-.453.1728-.969.2592-1.548.2592-.3175 0-.642-.0327-.9736-.0981-.3268-.0654-.6443-.1564-.9525-.2731-.3082-.1215-.5977-.2639-.8685-.4273-.2709-.1634-.5067-.3455-.7075-.5463l.7005-1.1067c.056-.0794.1284-.1447.2171-.1961.0934-.056.1938-.0841.3012-.0841.14 0 .2801.0444.4202.1331.1448.0887.3059.1868.4833.2942.1821.1074.3899.2055.6234.2942.2334.0887.5089.1331.8265.1331.4296 0 .7634-.0934 1.0016-.2802.2381-.1915.3572-.4926.3572-.9036 0-.2381-.0654-.4319-.1961-.5813-.1308-.14943-.3035-.27317-.5183-.37123-.2102-.09805-.4506-.18444-.7215-.25915-.2708-.07471-.5486-.15643-.8335-.24515-.2848-.09339-.5626-.20545-.8335-.3362-.2708-.13541-.5136-.31052-.7284-.52531-.2101-.21947-.3806-.4903-.5113-.81249-.1308-.32686-.1961-.72843-.1961-1.20472 0-.3829.077-.75645.2311-1.12067s.3806-.68875.6794-.97358c.2989-.28484.6654-.51131 1.0997-.67941.4342-.17277.9315-.25915 1.4919-.25915.3128 0 .6163.02568.9105.07704.2989.0467.5814.11907.8475.21713.2662.09339.5137.20779.7425.34321.2334.13074.4412.28017.6233.44827z"/><path d="m51.7294 5.21599v2.38143h3.2079v1.75104h-3.2079v2.43044h4.1885v1.8211h-6.5699v-10.2051h6.5699v1.82109z"/><path d="m60.6982 8.19277c.3222 0 .5953-.03969.8195-.11907.2288-.08405.4156-.19845.5603-.3432.1448-.14476.2498-.31286.3152-.5043.0654-.19612.0981-.40625.0981-.63038 0-.44827-.1471-.79848-.4413-1.05063-.2895-.25215-.7401-.37823-1.3518-.37823h-.9526v3.02581zm5.029 5.40723h-2.1433c-.3969 0-.6817-.1494-.8545-.4483l-1.695-2.9627c-.0794-.1261-.1681-.21716-.2662-.2732-.098-.0607-.2381-.09105-.4202-.09105h-.6024v3.77525h-2.3674v-10.2051h3.32c.7378 0 1.3658.07705 1.8841.23114.523.14942.9479.35955 1.2748.63038.3315.27083.572.59069.7214.95957.1494.36889.2241.77046.2241 1.20472 0 .33154-.0443.64439-.133.93857-.0888.29417-.2195.56733-.3923.81949-.1728.24748-.3875.46928-.6444.66539-.2521.19612-.544.35722-.8755.48329.1541.07938.2989.17978.4343.30118.1354.11674.2568.25682.3642.42027z"/><path d="m75.37 3.3949-4.0905 10.2051h-2.1432l-4.0905-10.2051h1.9052c.2054 0 .3712.04903.4972.14709.1261.09339.2218.2148.2872.36422l1.9752 5.46327c.0934.23814.1844.49963.2732.78442.0887.2802.1727.5744.2521.8826.0654-.3082.1378-.6024.2171-.8826.0841-.28479.1728-.54628.2662-.78442l1.9612-5.46327c.0513-.13075.1424-.24748.2731-.35021.1355-.1074.3012-.1611.4973-.1611z"/><path d="m78.556 13.6h-2.3814v-10.2051h2.3814z"/><path d="m87.403 10.9594c.056 0 .112.0117.1681.035.056.0187.1097.0537.1611.1051l.9385.9876c-.4109.537-.9269.9432-1.5479 1.2187-.6164.2709-1.3471.4063-2.1923.4063-.7751 0-1.4709-.1308-2.0873-.3923-.6117-.2661-1.1323-.6303-1.5619-1.0926-.4249-.467-.7518-1.018-.9806-1.653-.2288-.63972-.3432-1.33313-.3432-2.08025 0-.76112.1238-1.4592.3712-2.09425.2475-.63971.5954-1.19071 1.0437-1.65299.4482-.46227.9852-.82182 1.6109-1.07864s1.3145-.38523 2.0663-.38523c.3829 0 .7424.03502 1.0786.10506.3409.06537.6584.15876.9526.28017.2942.11673.565.25915.8125.42725.2474.1681.4669.35021.6584.54633l-.7985 1.07164c-.0514.06537-.1121.12608-.1821.18211-.0701.05136-.1681.07705-.2942.07705-.0841 0-.1634-.01868-.2382-.05604-.0747-.03735-.154-.08171-.2381-.13308-.084-.05603-.1774-.1144-.2802-.1751-.098-.06537-.2171-.12374-.3572-.17511-.1354-.05603-.2965-.10273-.4833-.14008-.1821-.03736-.3969-.05603-.6443-.05603-.3923 0-.7518.07237-1.0787.21713-.3222.14475-.6024.35721-.8405.63738-.2335.2755-.4156.61637-.5463 1.02261-.1261.40157-.1891.86151-.1891 1.37982 0 .52298.07.98759.2101 1.39384.1447.40621.3385.74941.5813 1.02961.2475.2755.5347.4856.8616.6304.3268.1447.677.2171 1.0506.2171.2148 0 .4109-.0093.5883-.028.1775-.0234.3432-.0584.4973-.1051.1541-.0513.2989-.1167.4343-.1961.1354-.084.2732-.1891.4132-.3152.0561-.0467.1168-.084.1822-.112.0653-.0327.133-.0491.2031-.0491z"/><path d="m92.0856 5.21599v2.38143h3.2079v1.75104h-3.2079v2.43044h4.1885v1.8211h-6.5699v-10.2051h6.5699v1.82109z"/><path d="m105.879 8.31184h3.629v4.30756c-.523.3829-1.081.6607-1.674.8335-.589.1728-1.205.2592-1.849.2592-.841 0-1.607-.1308-2.298-.3923-.686-.2661-1.275-.6303-1.765-1.0926-.49-.467-.868-1.018-1.135-1.653-.266-.63972-.399-1.33313-.399-2.08025 0-.76112.126-1.4592.378-2.09425.253-.63971.612-1.19071 1.079-1.65299.472-.46227 1.039-.82182 1.702-1.07864.668-.25682 1.413-.38523 2.234-.38523.425 0 .825.03502 1.198.10506.374.07004.717.16577 1.03.28717.317.12141.607.26616.868.43426.262.1681.495.35021.701.54633l-.687 1.04362c-.107.16343-.247.26383-.42.30118-.168.03736-.35-.00467-.546-.12607-.187-.11207-.365-.20779-.533-.28717-.163-.08406-.331-.15176-.504-.20313-.173-.05136-.355-.08872-.546-.11206-.192-.02335-.406-.03502-.645-.03502-.443 0-.842.07938-1.197.23814-.355.15409-.659.37355-.911.65839-.247.28484-.439.62804-.574 1.02962-.136.3969-.203.8405-.203 1.33079 0 .54166.074 1.02262.224 1.44287.149.42028.359.77508.63 1.06468.276.2895.603.5113.981.6654.383.1494.805.2241 1.267.2241.285 0 .542-.028.771-.0841.233-.056.46-.1307.679-.2241v-1.5479h-1.008c-.15 0-.266-.03972-.35-.1191s-.127-.17977-.127-.30118z"/><path d="m115.358 11.7299c.318 0 .6-.0514.848-.1541.252-.1074.464-.2592.637-.4553s.304-.4342.392-.7144c.094-.2848.141-.60703.141-.96658v-6.04462h2.367v6.04462c0 .62568-.103 1.20008-.308 1.72298-.201.523-.491.9736-.869 1.3519-.378.3782-.838.6724-1.38.8825-.541.2101-1.151.3152-1.828.3152-.681 0-1.293-.1051-1.835-.3152-.541-.2101-1.001-.5043-1.38-.8825-.378-.3783-.667-.8289-.868-1.3519-.201-.5229-.301-1.0973-.301-1.72298v-6.04462h2.367v6.03762c0 .35954.044.68178.133.96658.094.2802.227.5206.399.7214.173.1961.383.3479.631.4553.252.1027.537.1541.854.1541z"/><path d="m123.974 13.6h-2.382v-10.2051h2.382z"/><path d="m135.202 8.49395c0 .73778-.128 1.41952-.385 2.04525-.252.621-.609 1.1603-1.072 1.6179-.462.453-1.02.8079-1.674 1.0647-.649.2521-1.37.3782-2.164.3782h-3.964v-10.2051h3.964c.794 0 1.515.12841 2.164.38523.654.25682 1.212.6117 1.674 1.06464.463.45294.82.99226 1.072 1.61797.257.62104.385 1.29811.385 2.03121zm-2.423 0c0-.5043-.066-.95957-.196-1.36581-.131-.40625-.32-.74945-.568-1.02962-.243-.28484-.541-.50197-.896-.65139-.355-.15409-.759-.23114-1.212-.23114h-1.583v6.56291h1.583c.453 0 .857-.0747 1.212-.2241.355-.1541.653-.3712.896-.6514.248-.2848.437-.6304.568-1.03663.13-.40624.196-.86385.196-1.37282z"/><path d="m138.981 5.21599v2.38143h3.208v1.75104h-3.208v2.43044h4.188v1.8211h-6.57v-10.2051h6.57v1.82109z"/></g></svg>

<svg width="144" height="18" viewBox="0 0 144 18" fill="none" xmlns="http://www.w3.org/2000/svg">
<path fill-rule="evenodd" clip-rule="evenodd" d="M8.91279 0C11.2945 0 13.5333 0.935852 15.2173 2.63564C16.9016 4.33568 17.829 6.59608 17.829 8.99986C17.829 11.4039 16.9016 13.664 15.2173 15.3638C13.5331 17.0639 11.2937 18 8.91201 18C6.53032 18 4.29147 17.0641 2.60723 15.3641C-0.869294 11.8549 -0.869034 6.14507 2.60775 2.63617C4.292 0.936111 6.53111 0 8.91279 0ZM13.3094 5.68216C14.7634 7.64337 14.7634 10.3566 13.3094 12.3179L14.6326 13.6532C15.6861 12.339 16.2596 10.7139 16.2596 8.99988C16.2596 7.28557 15.6861 5.66077 14.6329 4.34625L13.3094 5.68216ZM6.13634 11.8024C4.60539 10.2571 4.60539 7.74292 6.13634 6.1976C6.878 5.44925 7.86401 5.03677 8.91253 5.03677C9.96106 5.03677 10.9471 5.44925 11.6887 6.1976C13.2197 7.74292 13.2197 10.2571 11.6887 11.8024C10.9471 12.5508 9.96106 12.9632 8.91253 12.9632C7.86401 12.9632 6.878 12.5508 6.13634 11.8024ZM12.1999 4.56174L13.5229 3.22635C12.2211 2.16296 10.6112 1.5844 8.91281 1.5844C7.2147 1.5844 5.60476 2.16322 4.30247 3.22662L5.62517 4.56174C6.56983 3.84586 7.71018 3.45293 8.91255 3.45293C10.1149 3.45293 11.2553 3.84586 12.1999 4.56174ZM3.19271 4.34677L4.51593 5.68242C3.06191 7.64363 3.06191 10.3569 4.51593 12.3181L3.19245 13.654C1.02868 10.9479 1.02868 7.05264 3.19271 4.34677ZM5.62515 13.4385L4.30219 14.7739C5.60448 15.8373 7.21391 16.4159 8.912 16.4159C10.6104 16.4159 12.2203 15.837 13.5226 14.7737L12.1999 13.4385C11.2552 14.1544 10.1149 14.5473 8.91253 14.5473C7.71017 14.5473 6.56983 14.1544 5.62515 13.4385Z" fill="#0025E4"/>
<path d="M28.6523 5.46814C28.5822 5.58021 28.5075 5.66426 28.4281 5.72029C28.3534 5.77633 28.2554 5.80435 28.1339 5.80435C28.0266 5.80435 27.9098 5.77166 27.7837 5.70629C27.6623 5.63624 27.5222 5.5592 27.3635 5.47515C27.2094 5.3911 27.032 5.31639 26.8312 5.25101C26.6304 5.18097 26.4016 5.14595 26.1448 5.14595C25.7012 5.14595 25.3696 5.24168 25.1502 5.43312C24.9354 5.6199 24.828 5.87439 24.828 6.19658C24.828 6.40204 24.8933 6.57247 25.0241 6.70789C25.1548 6.8433 25.3253 6.96004 25.5354 7.05809C25.7502 7.15615 25.993 7.24721 26.2638 7.33126C26.5393 7.41064 26.8195 7.50169 27.1043 7.60442C27.3892 7.70248 27.667 7.81922 27.9378 7.95463C28.2133 8.09005 28.4561 8.26282 28.6663 8.47294C28.8811 8.68307 29.0538 8.93989 29.1846 9.2434C29.3153 9.54225 29.3807 9.90413 29.3807 10.3291C29.3807 10.8007 29.299 11.2419 29.1355 11.6528C28.9721 12.0638 28.734 12.4233 28.4211 12.7315C28.1129 13.035 27.73 13.2755 27.2724 13.4529C26.8195 13.6257 26.3035 13.7121 25.7245 13.7121C25.407 13.7121 25.0825 13.6794 24.7509 13.614C24.4241 13.5486 24.1065 13.4576 23.7984 13.3409C23.4902 13.2194 23.2007 13.077 22.9298 12.9136C22.659 12.7502 22.4232 12.5681 22.2224 12.3673L22.9228 11.2606C22.9789 11.1812 23.0512 11.1159 23.14 11.0645C23.2334 11.0085 23.3337 10.9804 23.4411 10.9804C23.5812 10.9804 23.7213 11.0248 23.8614 11.1135C24.0061 11.2022 24.1672 11.3003 24.3447 11.4077C24.5268 11.5151 24.7346 11.6132 24.9681 11.7019C25.2015 11.7906 25.477 11.835 25.7945 11.835C26.2241 11.835 26.558 11.7416 26.7961 11.5548C27.0343 11.3633 27.1534 11.0622 27.1534 10.6512C27.1534 10.4131 27.088 10.2193 26.9572 10.0699C26.8265 9.92047 26.6537 9.79673 26.4389 9.69867C26.2288 9.60062 25.9883 9.51423 25.7175 9.43952C25.4467 9.36481 25.1688 9.28309 24.884 9.19437C24.5992 9.10098 24.3213 8.98892 24.0505 8.85817C23.7797 8.72276 23.5369 8.54765 23.3221 8.33286C23.1119 8.11339 22.9415 7.84256 22.8108 7.52037C22.68 7.19351 22.6146 6.79194 22.6146 6.31565C22.6146 5.93275 22.6917 5.5592 22.8458 5.19498C22.9999 4.83076 23.2263 4.50623 23.5252 4.2214C23.824 3.93656 24.1906 3.71009 24.6248 3.54199C25.0591 3.36922 25.5564 3.28284 26.1167 3.28284C26.4296 3.28284 26.7331 3.30852 27.0273 3.35988C27.3261 3.40658 27.6086 3.47895 27.8748 3.57701C28.141 3.6704 28.3884 3.7848 28.6172 3.92022C28.8507 4.05096 29.0585 4.20039 29.2406 4.36849L28.6523 5.46814Z" fill="#0025E4"/>
<path d="M33.1519 5.21599V7.80054H36.64V9.62863H33.1519V13.6H30.7705V3.3949H37.3404V5.21599H33.1519Z" fill="#0025E4"/>
<path d="M47.2298 5.46814C47.1597 5.58021 47.085 5.66426 47.0056 5.72029C46.9309 5.77633 46.8329 5.80435 46.7115 5.80435C46.6041 5.80435 46.4873 5.77166 46.3613 5.70629C46.2399 5.63624 46.0998 5.5592 45.941 5.47515C45.7869 5.3911 45.6095 5.31639 45.4087 5.25101C45.2079 5.18097 44.9791 5.14595 44.7223 5.14595C44.2787 5.14595 43.9471 5.24168 43.7277 5.43312C43.5129 5.6199 43.4055 5.87439 43.4055 6.19658C43.4055 6.40204 43.4709 6.57247 43.6016 6.70789C43.7324 6.8433 43.9028 6.96004 44.1129 7.05809C44.3277 7.15615 44.5705 7.24721 44.8414 7.33126C45.1168 7.41064 45.397 7.50169 45.6819 7.60442C45.9667 7.70248 46.2445 7.81922 46.5154 7.95463C46.7908 8.09005 47.0337 8.26282 47.2438 8.47294C47.4586 8.68307 47.6314 8.93989 47.7621 9.2434C47.8928 9.54225 47.9582 9.90413 47.9582 10.3291C47.9582 10.8007 47.8765 11.2419 47.7131 11.6528C47.5496 12.0638 47.3115 12.4233 46.9986 12.7315C46.6905 13.035 46.3076 13.2755 45.85 13.4529C45.397 13.6257 44.881 13.7121 44.302 13.7121C43.9845 13.7121 43.66 13.6794 43.3284 13.614C43.0016 13.5486 42.6841 13.4576 42.3759 13.3409C42.0677 13.2194 41.7782 13.077 41.5074 12.9136C41.2365 12.7502 41.0007 12.5681 40.7999 12.3673L41.5004 11.2606C41.5564 11.1812 41.6288 11.1159 41.7175 11.0645C41.8109 11.0085 41.9113 10.9804 42.0187 10.9804C42.1587 10.9804 42.2988 11.0248 42.4389 11.1135C42.5837 11.2022 42.7448 11.3003 42.9222 11.4077C43.1043 11.5151 43.3121 11.6132 43.5456 11.7019C43.779 11.7906 44.0545 11.835 44.3721 11.835C44.8017 11.835 45.1355 11.7416 45.3737 11.5548C45.6118 11.3633 45.7309 11.0622 45.7309 10.6512C45.7309 10.4131 45.6655 10.2193 45.5348 10.0699C45.404 9.92047 45.2313 9.79673 45.0165 9.69867C44.8063 9.60062 44.5659 9.51423 44.295 9.43952C44.0242 9.36481 43.7464 9.28309 43.4615 9.19437C43.1767 9.10098 42.8989 8.98892 42.628 8.85817C42.3572 8.72276 42.1144 8.54765 41.8996 8.33286C41.6895 8.11339 41.519 7.84256 41.3883 7.52037C41.2575 7.19351 41.1922 6.79194 41.1922 6.31565C41.1922 5.93275 41.2692 5.5592 41.4233 5.19498C41.5774 4.83076 41.8039 4.50623 42.1027 4.2214C42.4016 3.93656 42.7681 3.71009 43.2024 3.54199C43.6366 3.36922 44.1339 3.28284 44.6943 3.28284C45.0071 3.28284 45.3106 3.30852 45.6048 3.35988C45.9037 3.40658 46.1862 3.47895 46.4523 3.57701C46.7185 3.6704 46.966 3.7848 47.1948 3.92022C47.4282 4.05096 47.636 4.20039 47.8181 4.36849L47.2298 5.46814Z" fill="#0025E4"/>
<path d="M51.7294 5.21599V7.59742H54.9373V9.34846H51.7294V11.7789H55.9179V13.6H49.348V3.3949H55.9179V5.21599H51.7294Z" fill="#0025E4"/>
<path d="M60.6982 8.19277C61.0204 8.19277 61.2935 8.15308 61.5177 8.0737C61.7465 7.98965 61.9333 7.87525 62.078 7.7305C62.2228 7.58574 62.3278 7.41764 62.3932 7.2262C62.4586 7.03008 62.4913 6.81995 62.4913 6.59582C62.4913 6.14755 62.3442 5.79734 62.05 5.54519C61.7605 5.29304 61.3099 5.16696 60.6982 5.16696H59.7456V8.19277H60.6982ZM65.7272 13.6H63.5839C63.187 13.6 62.9022 13.4506 62.7294 13.1517L61.0344 10.189C60.955 10.0629 60.8663 9.97184 60.7682 9.9158C60.6702 9.8551 60.5301 9.82475 60.348 9.82475H59.7456V13.6H57.3782V3.3949H60.6982C61.436 3.3949 62.064 3.47195 62.5823 3.62604C63.1053 3.77546 63.5302 3.98559 63.8571 4.25642C64.1886 4.52725 64.4291 4.84711 64.5785 5.21599C64.7279 5.58488 64.8026 5.98645 64.8026 6.42071C64.8026 6.75225 64.7583 7.0651 64.6696 7.35928C64.5808 7.65345 64.4501 7.92661 64.2773 8.17877C64.1045 8.42625 63.8898 8.64805 63.6329 8.84416C63.3808 9.04028 63.0889 9.20138 62.7574 9.32745C62.9115 9.40683 63.0563 9.50723 63.1917 9.62863C63.3271 9.74537 63.4485 9.88545 63.5559 10.0489L65.7272 13.6Z" fill="#0025E4"/>
<path d="M75.37 3.3949L71.2795 13.6H69.1363L65.0458 3.3949H66.951C67.1564 3.3949 67.3222 3.44393 67.4482 3.54199C67.5743 3.63538 67.67 3.75679 67.7354 3.90621L69.7106 9.36948C69.804 9.60762 69.895 9.86911 69.9838 10.1539C70.0725 10.4341 70.1565 10.7283 70.2359 11.0365C70.3013 10.7283 70.3737 10.4341 70.453 10.1539C70.5371 9.86911 70.6258 9.60762 70.7192 9.36948L72.6804 3.90621C72.7317 3.77546 72.8228 3.65873 72.9535 3.556C73.089 3.4486 73.2547 3.3949 73.4508 3.3949H75.37Z" fill="#0025E4"/>
<path d="M78.556 13.6H76.1746V3.3949H78.556V13.6Z" fill="#0025E4"/>
<path d="M87.403 10.9594C87.459 10.9594 87.515 10.9711 87.5711 10.9944C87.6271 11.0131 87.6808 11.0481 87.7322 11.0995L88.6707 12.0871C88.2598 12.6241 87.7438 13.0303 87.1228 13.3058C86.5064 13.5767 85.7757 13.7121 84.9305 13.7121C84.1554 13.7121 83.4596 13.5813 82.8432 13.3198C82.2315 13.0537 81.7109 12.6895 81.2813 12.2272C80.8564 11.7602 80.5295 11.2092 80.3007 10.5742C80.0719 9.93448 79.9575 9.24107 79.9575 8.49395C79.9575 7.73283 80.0813 7.03475 80.3287 6.3997C80.5762 5.75999 80.9241 5.20899 81.3724 4.74671C81.8206 4.28444 82.3576 3.92489 82.9833 3.66807C83.609 3.41125 84.2978 3.28284 85.0496 3.28284C85.4325 3.28284 85.792 3.31786 86.1282 3.3879C86.4691 3.45327 86.7866 3.54666 87.0808 3.66807C87.375 3.7848 87.6458 3.92722 87.8933 4.09532C88.1407 4.26342 88.3602 4.44553 88.5517 4.64165L87.7532 5.71329C87.7018 5.77866 87.6411 5.83937 87.5711 5.8954C87.501 5.94676 87.403 5.97245 87.2769 5.97245C87.1928 5.97245 87.1135 5.95377 87.0387 5.91641C86.964 5.87906 86.8847 5.8347 86.8006 5.78333C86.7166 5.7273 86.6232 5.66893 86.5204 5.60823C86.4224 5.54286 86.3033 5.48449 86.1632 5.43312C86.0278 5.37709 85.8667 5.33039 85.6799 5.29304C85.4978 5.25568 85.283 5.23701 85.0356 5.23701C84.6433 5.23701 84.2838 5.30938 83.9569 5.45414C83.6347 5.59889 83.3545 5.81135 83.1164 6.09152C82.8829 6.36702 82.7008 6.70789 82.5701 7.11413C82.444 7.5157 82.381 7.97564 82.381 8.49395C82.381 9.01693 82.451 9.48154 82.5911 9.88779C82.7358 10.294 82.9296 10.6372 83.1724 10.9174C83.4199 11.1929 83.7071 11.403 84.034 11.5478C84.3608 11.6925 84.711 11.7649 85.0846 11.7649C85.2994 11.7649 85.4955 11.7556 85.6729 11.7369C85.8504 11.7135 86.0161 11.6785 86.1702 11.6318C86.3243 11.5805 86.4691 11.5151 86.6045 11.4357C86.7399 11.3517 86.8777 11.2466 87.0177 11.1205C87.0738 11.0738 87.1345 11.0365 87.1999 11.0085C87.2652 10.9758 87.3329 10.9594 87.403 10.9594Z" fill="#0025E4"/>
<path d="M92.0856 5.21599V7.59742H95.2935V9.34846H92.0856V11.7789H96.2741V13.6H89.7042V3.3949H96.2741V5.21599H92.0856Z" fill="#0025E4"/>
<path d="M105.879 8.31184H109.508V12.6194C108.985 13.0023 108.427 13.2801 107.834 13.4529C107.245 13.6257 106.629 13.7121 105.985 13.7121C105.144 13.7121 104.378 13.5813 103.687 13.3198C103.001 13.0537 102.412 12.6895 101.922 12.2272C101.432 11.7602 101.054 11.2092 100.787 10.5742C100.521 9.93448 100.388 9.24107 100.388 8.49395C100.388 7.73283 100.514 7.03475 100.766 6.3997C101.019 5.75999 101.378 5.20899 101.845 4.74671C102.317 4.28444 102.884 3.92489 103.547 3.66807C104.215 3.41125 104.96 3.28284 105.781 3.28284C106.206 3.28284 106.606 3.31786 106.979 3.3879C107.353 3.45794 107.696 3.55367 108.009 3.67507C108.326 3.79648 108.616 3.94123 108.877 4.10933C109.139 4.27743 109.372 4.45954 109.578 4.65566L108.891 5.69928C108.784 5.86271 108.644 5.96311 108.471 6.00046C108.303 6.03782 108.121 5.99579 107.925 5.87439C107.738 5.76232 107.56 5.6666 107.392 5.58722C107.229 5.50316 107.061 5.43546 106.888 5.38409C106.715 5.33273 106.533 5.29537 106.342 5.27203C106.15 5.24868 105.936 5.23701 105.697 5.23701C105.254 5.23701 104.855 5.31639 104.5 5.47515C104.145 5.62924 103.841 5.8487 103.589 6.13354C103.342 6.41838 103.15 6.76158 103.015 7.16316C102.879 7.56006 102.812 8.00366 102.812 8.49395C102.812 9.03561 102.886 9.51657 103.036 9.93682C103.185 10.3571 103.395 10.7119 103.666 11.0015C103.942 11.291 104.269 11.5128 104.647 11.6669C105.03 11.8163 105.452 11.891 105.914 11.891C106.199 11.891 106.456 11.863 106.685 11.8069C106.918 11.7509 107.145 11.6762 107.364 11.5828V10.0349H106.356C106.206 10.0349 106.09 9.99518 106.006 9.9158C105.922 9.83642 105.879 9.73603 105.879 9.61462V8.31184Z" fill="#0025E4"/>
<path d="M115.358 11.7299C115.676 11.7299 115.958 11.6785 116.206 11.5758C116.458 11.4684 116.67 11.3166 116.843 11.1205C117.016 10.9244 117.147 10.6863 117.235 10.4061C117.329 10.1213 117.376 9.79907 117.376 9.43952V3.3949H119.743V9.43952C119.743 10.0652 119.64 10.6396 119.435 11.1625C119.234 11.6855 118.944 12.1361 118.566 12.5144C118.188 12.8926 117.728 13.1868 117.186 13.3969C116.645 13.607 116.035 13.7121 115.358 13.7121C114.677 13.7121 114.065 13.607 113.523 13.3969C112.982 13.1868 112.522 12.8926 112.143 12.5144C111.765 12.1361 111.476 11.6855 111.275 11.1625C111.074 10.6396 110.974 10.0652 110.974 9.43952V3.3949H113.341V9.43252C113.341 9.79206 113.385 10.1143 113.474 10.3991C113.568 10.6793 113.701 10.9197 113.873 11.1205C114.046 11.3166 114.256 11.4684 114.504 11.5758C114.756 11.6785 115.041 11.7299 115.358 11.7299Z" fill="#0025E4"/>
<path d="M123.974 13.6H121.592V3.3949H123.974V13.6Z" fill="#0025E4"/>
<path d="M135.202 8.49395C135.202 9.23173 135.074 9.91347 134.817 10.5392C134.565 11.1602 134.208 11.6995 133.745 12.1571C133.283 12.6101 132.725 12.965 132.071 13.2218C131.422 13.4739 130.701 13.6 129.907 13.6H125.943V3.3949H129.907C130.701 3.3949 131.422 3.52331 132.071 3.78013C132.725 4.03695 133.283 4.39183 133.745 4.84477C134.208 5.29771 134.565 5.83703 134.817 6.46274C135.074 7.08378 135.202 7.76085 135.202 8.49395ZM132.779 8.49395C132.779 7.98965 132.713 7.53438 132.583 7.12814C132.452 6.72189 132.263 6.37869 132.015 6.09852C131.772 5.81368 131.474 5.59655 131.119 5.44713C130.764 5.29304 130.36 5.21599 129.907 5.21599H128.324V11.7789H129.907C130.36 11.7789 130.764 11.7042 131.119 11.5548C131.474 11.4007 131.772 11.1836 132.015 10.9034C132.263 10.6186 132.452 10.273 132.583 9.86677C132.713 9.46053 132.779 9.00292 132.779 8.49395Z" fill="#0025E4"/>
<path d="M138.981 5.21599V7.59742H142.189V9.34846H138.981V11.7789H143.169V13.6H136.599V3.3949H143.169V5.21599H138.981Z" fill="#0025E4"/>
</svg>
